flaticon/stationery/paper-2.svg

<svg xmlns="http://www.w3.org/2000/svg" width="32" height="32" viewBox="0 0 24 24">
    <path d="M 20.679688 0 L 10.210938 0 C 10.074219 0 9.945312 0.0546875 9.851562 0.148438 L 2.957031 7.042969 C 2.863281 7.136719 2.808594 7.265625 2.808594 7.402344 L 2.808594 23.488281 C 2.808594 23.769531 3.035156 24 3.320312 24 L 20.679688 24 C 20.964844 24 21.191406 23.769531 21.191406 23.488281 L 21.191406 0.511719 C 21.191406 0.230469 20.964844 0 20.679688 0 Z M 9.699219 1.742188 L 9.699219 6.890625 L 4.550781 6.890625 Z M 20.171875 22.980469 L 3.828125 22.980469 L 3.828125 7.914062 L 10.210938 7.914062 C 10.492188 7.914062 10.722656 7.683594 10.722656 7.402344 L 10.722656 1.019531 L 20.171875 1.019531 Z M 20.171875 22.980469"/>
</svg>

<svg xmlns="http://www.w3.org/2000/svg" width="32" height="32" viewBox="0 0 24 24">
    <path d="M20.68 0H10.21a.508.508 0 0 0-.358.148L2.957 7.043a.508.508 0 0 0-.148.36v16.085c0 .282.226.512.511.512h17.36c.285 0 .511-.23.511-.512V.512A.511.511 0 0 0 20.68 0zM9.7 1.742v5.149H4.55zM20.171 22.98H3.828V7.914h6.383c.281 0 .512-.23.512-.512V1.02h9.449zm0 0"/>
</svg>
